X: 5853
T: Calliope House
R: jig
M: 6/8
K: Dmajor
|:dAA fAA|eAA fAA|B2e e2d|efd BdB|ABA A2F|
A2B d2e|1 faf fed|e3 efe:|2 faf edB|d3 de/f/g||
|:a2a faa|eaa daa|g3 fgf|efe edB|ABA A2F|
A2B d2e|1 faf fed|e3 efg:|2 faf edB|d3 d2A||

